public/svg/turso.svg

<svg xmlns="http://www.w3.org/2000/svg" width="36" height="36" xmlns:v="https://vecta.io/nano"><path d="M35 1.2l-.8-.6-1.7 1.8-1.3-2-.8.4 1 2.7-.5.5-3.7-4-.9.4 3.4 7.3-3.3 1.1h0l-1.7-2-1.8 2h-9.8l-1.7-2-1.7 2h-.1L6.4 7.7 9.8.4 8.9 0 5.1 4l-.4-.5 1-2.7-.8-.4-1.3 2L1.9.6l-.8.6 2.6 4.3-1.3 1.4.4 3.6 3.1 1.2v1.5H3v.7l1.1 1.6 1.8.7v10.4l4.6 6.8 1 2.6 1.7-2.4 1.7 2.4 1.5-2.4 1.7 2.4 1.6-2.4 1.5 2.4 1.7-2.4 1.7 2.4 1-2.6 4.6-6.8V16.2l1.7-.7 1.1-1.6v-.7h-2.8v-1.5l3.1-1.2.5-3.6-1.5-1.4L35 1.2h0zM21.6 29.3h-9.5l1.2-2.4 1.2 2.4 1.2-1.6 1.2 1.6 1.2-1.6 1.2 1.6 1.1-1.6 1.2 1.6 1.2-2.4 1.1 2.4h-2.3 0zm5.8-11.1l-5 1.6-.1 4.6-4.2 1-4.3-1-.2-4.6-4.9-1.6v-2.5l6.4 1.9-.1 6.1h6.1v-6.1l6.3-1.9v2.5h0z" fill="#4ff8d2"/></svg>

<svg
  width="36"
  height="36"
  viewBox="0 0 36 36"
  xmlns="http://www.w3.org/2000/svg"
>
  <path
    transform="matrix(1,0,0,1,0,0)"
    d="M 35 1.2 L 34.2 0.6 L 32.5 2.4 L 31.2 0.4 L 30.4 0.8 L 31.4 3.5 L 30.9 4 L 27.2 0 L 26.3 0.4 L 29.7 7.7 L 26.4 8.8 H 26.4 L 24.7 6.8 L 22.9 8.8 H 13.1 L 11.4 6.8 L 9.7 8.8 H 9.6 L 6.4 7.7 L 9.8 0.4 L 8.9 0 L 5.1 4 L 4.7 3.5 L 5.7 0.8 L 4.9 0.4 L 3.6 2.4 L 1.9 0.6 L 1.1 1.2 L 3.7 5.5 L 2.4 6.9 L 2.8 10.5 L 5.9 11.7 L 5.9 13.2 H 3 V 13.9 L 4.1 15.5 L 5.9 16.2 V 26.6 L 10.5 33.4 L 11.5 36 L 13.2 33.6 L 14.9 36 L 16.4 33.6 L 18.1 36 L 19.7 33.6 L 21.2 36 L 22.9 33.6 L 24.6 36 L 25.6 33.4 L 30.2 26.6 V 16.2 L 31.9 15.5 L 33 13.9 V 13.2 H 30.2 L 30.2 11.7 L 33.3 10.5 L 33.8 6.9 L 32.3 5.5 L 35 1.2 L 35 1.2 Z M 21.6 29.3 H 12.1 L 13.3 26.9 L 14.5 29.3 L 15.7 27.7 L 16.9 29.3 L 18.1 27.7 L 19.3 29.3 L 20.4 27.7 L 21.6 29.3 L 22.8 26.9 L 23.9 29.3 H 21.6 H 21.6 Z M 27.4 18.2 L 22.4 19.8 L 22.3 24.4 L 18.1 25.4 L 13.8 24.4 L 13.6 19.8 L 8.7 18.2 V 15.7 L 15.1 17.6 L 15 23.7 H 21.1 L 21.1 17.6 L 27.4 15.7 V 18.2 H 27.4 Z"
    fill="#4ff8d2"
  />
</svg>
